!!!!SEGMENT: pl-wtm--r-244-n--001_noskowski-zygmunt--piesni-ludowe-matulu-moja.krn
!!!cenid: 18xx:2145
!!!COM: Noskowski, Zygmunt
!!!COM-rismid: pe106604
!!!CDT: 1846/05/02-1909/07/23
!!!CNT: Polish
!!!GTL: Pieśni ludowe
!!!OTL: Matulu moja
!!!PDT:
!!!AGN: Secular; Song
!!!SMS-siglum: PL-Wtm
!!!SMS-shelfmark: R 244/N
!!!SMS-shelfwork: 001 G
!!!SMS-variant:
!!!SMS-altvar:
!!!NIFC-rismid: 1001101053
!!!URL-scan: http://repozytorium.nifc.pl/skany/pl-wtm-nut--r244n
!!!ONB-nifc: UWAGA: w zbiorze: 1. Matulu moja!, 2. Terli pęc!, 3. Kochałem!
!!!OMD: Andantino cantabile.
!!!AIN: 1 bass 1 tenor
!!!key:
**kern	**text	**dynam	**kern	**text	**text	**text	**dynam
*part2	*	*part2	*part1	*part1	*part1	*part1	*part1
*staff2	*	*	*staff1	*staff1	*staff1	*staff1	*
*Ibass	*	*	*Itenor	*	*	*	*
*I"Basy	*	*	*I"Tenory	*	*	*	*
*I'B.	*	*	*I'T.	*	*	*	*
*clefF4	*	*	*clefG2	*	*	*	*
*	*	*	*ITrd7c12	*	*	*	*
*k[f#]	*	*	*k[f#]	*	*	*	*
*e:	*	*	*e:	*	*	*	*
*M4/4	*	*	*M4/4	*	*	*	*
*met(c)	*	*	*met(c)	*	*	*	*
*>[A,A,A]	*>[A,A,A]	*>[A,A,A]	*>[A,A,A]	*>[A,A,A]	*>[A,A,A]	*>[A,A,A]	*>[A,A,A]
=1	=1	=1	=1	=1	=1	=1	=1
*>A	*>A	*>A	*>A	*>A	*>A	*>A	*>A
*^	*	*	*^	*	*	*	*
*	*	*	*	*	*	*	*	*	*^
*	*	*	*	*	*	*	*	*	*	*^
!	!	!	!	!LO:TX:a:t=Pieśni ludowe na chór męʒki opracował\nZygmunt Noskowski	!	!	!	!	!LO:DY:b	!LO:DY:b	!LO:DY:b
!	!	!	!	!LO:TX:a:t=1. Matulu moja!	!LO:TX:b:t=P:problem=w każdej zwrotce inna dynamika	!	!	!	!	!	!
4D/	4GG\	.	.	4B/	4G\	1. Ma-	2. Bo	3. Ja	mf	p	pp
(<8E/L	4C\	.	.	4e/	(>8G\L	-tu-	jej	ró-	.	.	.
8F#/J)	.	.	.	.	8A\J)	.	.	.	.	.	.
4G/	4BB\	.	.	4d/	4B\	lu	u-	-że	.	.	.
4F#/	4D\	.	.	4A/	4A\	mo-	-ro-	u-	.	.	.
*	*	*	*	*	*	*	*	*	*	*v	*v
*	*	*	*	*	*	*	*	*	*v	*v
=2	=2	=2	=2	=2	=2	=2	=2	=2	=2
(2G/	4G\	.	.	1B	(2G\	-ja	-da	-rwę,	.
.	(>8F#\L	ma-	.	.	.	.	.	.	.
.	8E\J)	.	.	.	.	.	.	.	.
2F#/)	4D#X\	-tu-	.	.	2A\)	.	.	.	.
.	4BB\	-lu	.	.	.	.	.	.	.
=3	=3	=3	=3	=3	=3	=3	=3	=3	=3
!LO:TX:t=P:problem=dwie oddzielne nuty	!	!	!	!	!	!	!	!	!
4E/	4E\	.	.	4B/	4G\	śli-	jak	nie	.
4E/	4GG\	.	.	4g/	4B\	-czną	by-	bę-	.
(<8E/L	4AA\	.	.	(<8f#/L	4c\	có-	-stra	-dzie	.
8F#/J)	.	.	.	8e/J)	.	.	.	.	.
4A/	4BB\	.	.	4d#X/	4B\	-rę	wo-	ros-	.
=4	=4	=4	=4	=4	=4	=4	=4	=4	=4
(2G/	(2E\	.	.	1e	(2B\	masz,	da,	-ła,	.
4A/	4AA\	.	.	.	4c\	.	.	.	.
4F#/)	4C\)	.	.	.	4A\)	.	.	.	.
!!LO:LB:g=original
=5	=5	=5	=5	=5	=5	=5	=5	=5	=5
4G/	4E\	.	.	4B/	4G\	Oj	A	O	.
8G/	8E\	.	.	8g/	8B\	nie	jej	już	.
8B/	8GG\	.	.	8g/	8e\	wy-	li-	i	.
4.B/	4.BB\	.	.	4.f#/	4.d\	-da-	-czeń-	mo-	.
8F#/	8D\	.	.	8B/	8B\	-waj	-ka	-ja	.
=6	=6	=6	=6	=6	=6	=6	=6	=6	=6
8G/	8E\	.	.	8g/	8B\	by-	pię-	zie-	.
8B/	8BB\	.	.	8f#/	8d\	-le	-knie	-lo-	.
8G/	8C\	.	.	8e/	8c\	za	prze-	-na	.
8F#/	8D\	.	.	8d/	8A\	ja-	-kwi-	dro-	.
4G/	4GG\	.	.	4B/	4G\	-kie-	-ta-	-żeń-	.
4E/	4C\	.	.	4A/	4G\	-go,	-ją,	-ka	.
=7	=7	=7	=7	=7	=7	=7	=7	=7	=7
4G/	4AA\	.	.	4e/	4c\	Jej	Jak	Cier-	.
4F#/	4D\	.	.	4e/	4c\	u-	w sa-	-niem	.
4.G/	4.E\	.	.	4.d/	4.B\	-ro-	-dzie	za-	.
8F#/	8F#\	.	.	8A/	8A\	-dy	ró-	-ros-	.
=8	=8	=8	=8	=8	=8	=8	=8	=8	=8
*	*	*	*	*	*	*	*	*	*^
!	!	!	!LO:HP:b	!	!	!	!	!	!	!
(4G/	(4G\	.	<	1B	(2G\	żal.	-ża.	-ła.	<	.
!	!	!	!	!	!	!	!	!	!	!LO:HP:b
8F#/L	8F#\L	.	.	.	.	.	.	.	.	<
8E/J	8E\J	.	[	.	.	.	.	.	[	[
!	!	!	!LO:HP:b	!	!	!	!	!	!	!LO:HP:b
4F#/	4D#X\	.	>	.	2A\)	.	.	.	>	>
8E/L	8C#X\L	.	.	.	.	.	.	.	.	.
8F#/J)	8D#\J)	.	]	.	.	.	.	.	]	]
*	*	*	*	*	*	*	*	*	*v	*v
!!LO:LB:g=original
=9	=9	=9	=9	=9	=9	=9	=9	=9	=9
4E/	4E\	.	.	4B/	4G\	Oj	A	O	.
8E/	8GG\	.	.	8g/	8B\	nie	jej	juz	.
8E/	8AA\	.	.	8g/	8c#X\	wy-	li-	i	.
4.F#/	4.D\	.	.	4.f#/	4.A\	-da-	-czeń-	mo-	.
8F#/	8D#X\	.	.	8B/	8A\	-waj	-ka	-ja	.
=10	=10	=10	=10	=10	=10	=10	=10	=10	=10
8G/	8E\	.	.	8g/	8B\	by-	pię-	zie-	.
8A/	8F#\	.	.	8f#/	8d#X\	-le	-knie	-lo-	.
8B/	8G\	.	.	8e/	8e\	za	prze-	-na	.
8A/	8F#\	.	.	8dn/	8dn\	ja-	-kwi-	dró-	.
4G/	4G\	.	.	4B/	4B\	-kie-	-ta-	-żeń-	.
4F#/	4D\	.	.	4A/	4A\	-go,	-ją,	-ka	.
=11	=11	=11	=11	=11	=11	=11	=11	=11	=11
*	*	*	*^	*	*	*	*	*	*^
4G/	4C\	.	.	.	4e/	4c\	Jej	Jak	Cier-	.	.
!	!	!	!	!LO:HP:b	!	!	!	!	!	!	!LO:HP:b
4A/	4AA\	.	>	>	4e/	4c\	u-	w sa-	-niem	>	>
4.F#/	4.BB\	.	.	.	4.d/	4.B\	-ro-	-dzie	za-	.	.
8E/	8C\	.	]	]]	8A/	8F#\	-dy	ró-	-ros-	]]	]
*	*	*	*v	*v	*	*	*	*	*	*v	*v
=12	=12	=12	=12	=12	=12	=12	=12	=12	=12
2.E;/	2.EE;\	.	.	2.B;/	2.G#X;\	żal.	-ża.	-ła.	.
4r	4ryy	.	.	4r	4ryy	.	.	.	.
*v	*v	*	*	*	*	*	*	*	*
*	*	*	*v	*v	*	*	*	*
*	*	*	*X8ba	*	*	*	*
==:|!	==:|!	==:|!	==:|!	==:|!	==:|!	==:|!	==:|!
*-	*-	*-	*-	*-	*-	*-	*-
!!!system-decoration: {(s1,s2)}
!!!RDF**kern: > = above
!!!RDF**kern: < = below
!!!ENC: Marta Lawrence
!!!END: 2021-05-31
!!!ENC: Marcin Jachim
!!!END: 2021-05-22
